public/icons/plumbing_icon.svg

<svg width="330" height="330" viewBox="0 0 330 330" fill="none" xmlns="http://www.w3.org/2000/svg">
<path d="M122.557 22.8587C133.806 22.7474 145.749 23.5662 156.886 22.5615C160.549 22.2314 163.692 19.6764 167.225 19.5433C169.256 19.4668 171.556 20.4172 173.364 21.3053C180.513 24.8283 208.23 22.3367 217.921 22.8643C221.787 24.7624 225.283 27.2392 226.73 31.5141C227.833 34.7958 227.472 39.0947 225.821 42.1316C223.957 45.5534 220.526 47.6259 216.854 48.6255C207.832 51.0773 196.24 49.1948 186.81 49.5287C181.153 49.729 176.081 50.9076 170.554 51.9684C172.483 55.3966 170.795 59.6974 172.798 62.572L173.698 62.8187C177.435 63.8647 181.051 65.2259 183.073 68.8109C185.437 72.992 184.278 81.6159 182.869 86.091C182.665 86.7114 182.359 87.2307 182.034 87.7852C187.681 87.6452 193.19 86.8922 197.975 90.4772C199.977 93.1209 199.505 96.2041 199.31 99.344C216.001 99.3504 232.72 99.1223 249.412 99.3727C249.477 99.2447 249.551 99.1205 249.616 98.9897C251.915 94.1733 248.086 87.4152 254.586 85.0079C259.12 83.3323 290.027 82.8835 293.94 84.7975C294.914 85.275 296.017 85.9946 296.296 87.0684C298.679 96.1578 298.558 162.44 295.962 171.393C291.223 175.01 262.551 174.411 256.311 173.74C255.04 173.603 253.705 173.415 252.889 172.329C250.024 168.516 251.674 161.809 249.486 158.176L197.817 158.135C197.789 162.167 194.191 167.338 191.344 170.106C184.9 176.385 174.579 178.787 165.834 178.59C157.711 178.406 148.689 176.514 142.986 170.304C139.536 166.552 137.32 161.713 133.852 158.148C126.128 158.106 106.923 155.915 101.387 161.701C94.9704 168.4 98.1603 183.325 96.7601 191.902C99.5327 192.754 102.417 193.325 104.373 195.607C107.229 202.382 106.942 222.364 104.141 229.095C103.705 230.161 103.094 231.111 101.971 231.527C97.9099 233.019 92.7634 232.263 88.4607 232.275C89.1933 233.426 89.6291 234.495 89.7497 235.854C90.5193 244.816 91.1035 301.343 89.6477 307.431C89.2768 308.95 88.1547 309.438 86.9863 310.341C84.7052 310.672 82.9804 310.538 80.7271 310.056C71.825 310.897 62.3202 310.268 53.3533 310.045C50.9516 310.251 50.1912 310.404 48.0306 309.424C42.1701 302.763 50.2191 245.578 45.3137 232.277C41.6787 232.325 36.5507 232.979 33.7225 230.283C29.7073 226.447 31.2373 208.931 31.5248 202.975C31.6454 200.314 31.7288 197.299 33.2588 195.029C35.03 193.987 39.1286 192.588 39.5644 190.726C41.2706 183.518 39.6757 173.999 39.9168 166.542C40.603 144.85 51.9439 123.397 69.8778 111.138C89.1655 97.953 110.957 99.3773 133.258 99.4126C133.407 99.1706 133.564 98.9332 133.704 98.6865C134.251 97.7323 134.288 96.9515 134.39 95.8814C134.584 93.8451 135.66 90.2629 137.218 88.9165C139.592 86.8579 145.842 87.6823 148.763 87.7889C151.879 81.5352 146.769 66.0299 154.976 63.72C156.2 63.3741 157.795 63.4159 159.065 63.3519C160.669 61.7569 161.207 60.532 161.189 58.1785C161.17 56.0262 161.096 53.7924 159.955 51.9267C159.761 51.8237 159.575 51.7171 159.38 51.6179C148.54 45.9725 119.581 55.1926 115.306 40.8789C114.379 37.7965 114.898 32.3885 116.604 29.6363C118.144 27.1484 121.472 25.2901 122.557 22.8587Z" fill="black"/>
<path d="M55.0134 232.217L78.5575 232.231C82.2667 238.363 79.0304 297.329 80.7273 310.056C71.8253 310.897 62.3205 310.268 53.3535 310.045C55.6347 307.974 55.9871 307.191 56.2004 304.108C56.8588 294.427 57.7582 236.688 55.0134 232.217Z" fill="#FED100"/>
<path d="M98.2621 110.281C109.621 109.163 121.509 109.679 132.943 109.609C133.342 110.253 133.685 110.815 133.898 111.553C135.372 116.823 135.085 144.237 133.026 148.433C122.91 148.441 108.639 146.136 99.4212 150.645C80.6991 159.801 90.8994 179.698 86.5967 191.792L84.3805 192.614C72.4184 192.451 60.4284 192.617 48.457 192.625C52.1384 187.267 45.7122 157.752 59.872 135.694C68.9873 121.481 82.1364 113.916 98.2621 110.281Z" fill="#FEFEFE"/>
<path d="M143.542 98.7811C157.099 96.7476 174.059 98.2887 187.978 98.3203C188.052 98.4417 188.135 98.5604 188.2 98.6856C190.546 102.915 189.73 149.485 188.089 155.474C187.143 158.914 185.576 161.074 182.479 162.853C182.395 163.05 182.34 163.257 182.238 163.444C181.134 165.465 177.666 167.117 175.533 167.719C168.421 169.726 159.491 168.721 153.111 164.969C150.367 163.351 147.603 160.976 146.194 158.057C139.582 144.387 147.863 114.914 143.681 99.2624C143.644 99.1011 143.588 98.9416 143.542 98.7811Z" fill="#FEFEFE"/>
<path d="M198.845 109.46C215.147 107.702 232.923 109.125 249.383 109.149C250.097 110.372 250.338 111.235 250.412 112.665C250.7 118.037 251.655 145.22 249.068 148.068C243.356 149.845 206.264 148.465 198.085 148.461C200.858 143.577 199.893 115.778 198.845 109.46Z" fill="#FEFEFE"/>
<path d="M259.704 94.6742C268.402 93.5058 277.638 94.1243 286.401 94.1567C286.614 94.5045 286.892 94.9134 287.031 95.3075C288.543 99.4599 288.042 159.097 286.317 162.855C284.12 164.651 263.339 163.689 259.147 163.676C259.24 163.538 259.324 163.404 259.407 163.263C261.929 158.732 261.493 100.323 259.704 94.6742Z" fill="#FEFEFE"/>
<path d="M40.7795 203.101C56.0614 201.129 78.1774 202.69 94.1269 202.737C94.8131 203.788 95.1747 204.699 95.3323 205.941C95.9536 210.894 96.6399 218.059 93.5149 221.995C80.4585 223.674 54.5869 222.204 40.1768 222.15C42.3466 217.982 42.0499 207.671 40.7795 203.101Z" fill="#FEFEFE"/>
<path d="M175.979 32.2476C187.421 31.6189 200.32 31.0236 211.717 32.1743C213.803 32.3848 215.62 32.7196 217.03 34.398C216.974 36.859 216.659 36.9397 215.009 38.8203C209.491 40.8362 183.536 39.717 176.887 39.1838C175.71 37.5332 176.043 34.2561 175.979 32.2476Z" fill="#FED100"/>
<path d="M127.684 32.2485C136.011 32.0714 144.672 31.4056 152.972 31.8655C155.271 31.9926 156.709 31.7709 158.313 33.5467C158.433 35.4189 158.61 36.7895 157.784 38.5142L154.706 39.474C147.38 39.5259 134.713 41.2405 127.87 38.862C126.015 38.2184 125.793 37.7974 124.995 36.0653C125.589 33.7452 125.756 33.6997 127.684 32.2485Z" fill="#FED100"/>
<path d="M159.938 73.3185C163.935 72.917 168.098 73.0839 172.123 73.0311C172.828 74.1837 173.143 75.136 173.328 76.4621C173.801 79.8003 174.172 84.4683 172.076 87.2836C168.228 88.4752 163.007 87.8233 158.955 87.8001C161.32 83.7654 160.68 77.7714 159.938 73.3185Z" fill="#FEFEFE"/>
</svg>

<svg xmlns="http://www.w3.org/2000/svg" width="330" height="330" fill="none" viewBox="0 0 330 330"><path fill="#000" d="M122.557 22.859c11.249-.112 23.192.707 34.329-.298 3.663-.33 6.806-2.885 10.339-3.018 2.031-.076 4.331.874 6.139 1.762 7.149 3.523 34.866 1.032 44.557 1.56 3.866 1.897 7.362 4.374 8.809 8.65 1.103 3.28.742 7.58-.909 10.617-1.864 3.421-5.295 5.494-8.967 6.494-9.022 2.451-20.614.569-30.044.903-5.657.2-10.729 1.379-16.256 2.44 1.929 3.428.241 7.728 2.244 10.603l.9.247c3.737 1.046 7.353 2.407 9.375 5.992 2.364 4.181 1.205 12.805-.204 17.28-.204.62-.51 1.14-.835 1.694 5.647-.14 11.156-.893 15.941 2.692 2.002 2.644 1.53 5.727 1.335 8.867 16.691.006 33.41-.222 50.102.029.065-.128.139-.252.204-.383 2.299-4.817-1.53-11.575 4.97-13.982 4.534-1.676 35.441-2.124 39.354-.21.974.477 2.077 1.197 2.356 2.27 2.383 9.09 2.262 75.372-.334 84.325-4.739 3.617-33.411 3.018-39.651 2.347-1.271-.137-2.606-.325-3.422-1.411-2.865-3.813-1.215-10.52-3.403-14.153l-51.669-.041c-.028 4.032-3.626 9.203-6.473 11.971-6.444 6.279-16.765 8.681-25.51 8.484-8.123-.184-17.145-2.076-22.848-8.286-3.45-3.752-5.666-8.591-9.134-12.156-7.724-.042-26.929-2.233-32.465 3.553-6.417 6.699-3.227 21.624-4.627 30.201 2.773.852 5.657 1.423 7.613 3.705 2.856 6.775 2.569 26.757-.232 33.488-.436 1.066-1.047 2.016-2.17 2.432-4.061 1.492-9.208.736-13.51.748.732 1.151 1.168 2.22 1.289 3.579.77 8.962 1.353 65.489-.102 71.577-.371 1.519-1.493 2.007-2.662 2.91-2.28.331-4.006.197-6.259-.285-8.902.841-18.407.212-27.374-.011-2.401.206-3.162.359-5.322-.621-5.86-6.661 2.188-63.846-2.717-77.147-3.635.048-8.763.702-11.592-1.994-4.015-3.836-2.485-21.352-2.197-27.308.12-2.661.204-5.676 1.734-7.946 1.771-1.042 5.87-2.441 6.305-4.303 1.707-7.208.112-16.727.353-24.184.686-21.692 12.027-43.145 29.96-55.404 19.289-13.185 41.08-11.76 63.381-11.725.149-.242.306-.48.446-.727.547-.954.584-1.735.686-2.805.194-2.036 1.27-5.618 2.828-6.965 2.374-2.058 8.624-1.234 11.545-1.127 3.116-6.254-1.994-21.76 6.213-24.069 1.224-.346 2.819-.304 4.089-.368 1.604-1.595 2.142-2.82 2.124-5.173-.019-2.153-.093-4.387-1.234-6.252-.194-.103-.38-.21-.575-.31-10.84-5.645-39.799 3.576-44.074-10.738-.927-3.082-.408-8.49 1.298-11.243 1.54-2.488 4.868-4.346 5.953-6.777"/><path fill="#fed100" d="m55.013 232.217 23.545.014c3.709 6.132.472 65.098 2.17 77.825-8.903.841-18.407.212-27.374-.011 2.28-2.071 2.633-2.854 2.846-5.937.659-9.681 1.558-67.42-1.187-71.891"/><path fill="#fefefe" d="M98.262 110.281c11.359-1.118 23.247-.602 34.681-.672.399.644.742 1.206.955 1.944 1.474 5.27 1.187 32.684-.872 36.88-10.116.008-24.387-2.297-33.605 2.212-18.722 9.156-8.522 29.053-12.824 41.147l-2.216.822c-11.963-.163-23.953.003-35.924.011 3.681-5.358-2.745-34.873 11.415-56.931 9.115-14.213 22.264-21.778 38.39-25.413m45.28-11.5c13.557-2.033 30.517-.492 44.436-.46.074.12.157.24.222.365 2.346 4.229 1.53 50.799-.111 56.788-.946 3.44-2.513 5.6-5.61 7.379-.084.197-.139.404-.241.591-1.104 2.021-4.572 3.673-6.705 4.275-7.112 2.007-16.042 1.002-22.422-2.75-2.744-1.618-5.508-3.993-6.917-6.912-6.612-13.67 1.669-43.143-2.513-58.795-.037-.16-.093-.32-.139-.48m55.303 10.678c16.302-1.758 34.078-.335 50.538-.311.714 1.223.955 2.086 1.029 3.516.288 5.372 1.243 32.555-1.344 35.403-5.712 1.777-42.804.397-50.983.393 2.773-4.884 1.808-32.683.76-39.001m60.859-14.786c8.698-1.168 17.934-.55 26.697-.517.213.347.491.756.63 1.15 1.512 4.153 1.011 63.79-.714 67.548-2.197 1.796-22.978.834-27.17.821.093-.138.177-.272.26-.413 2.522-4.531 2.086-62.94.297-68.589M40.78 203.101c15.281-1.972 37.397-.411 53.347-.364.686 1.051 1.048 1.962 1.205 3.204.622 4.953 1.308 12.118-1.817 16.054-13.056 1.679-38.928.209-53.338.155 2.17-4.168 1.873-14.479.602-19.049"/><path fill="#fed100" d="M175.979 32.248c11.442-.63 24.341-1.224 35.738-.074 2.086.21 3.903.546 5.313 2.224-.056 2.461-.371 2.542-2.021 4.422-5.518 2.016-31.473.897-38.122.364-1.177-1.65-.844-4.928-.908-6.936m-48.295.001c8.327-.178 16.988-.843 25.288-.384 2.299.128 3.737-.094 5.341 1.682.12 1.872.297 3.242-.529 4.967l-3.078.96c-7.326.052-19.993 1.767-26.836-.612-1.855-.644-2.077-1.065-2.875-2.797.594-2.32.761-2.365 2.689-3.816"/><path fill="#fefefe" d="M159.938 73.319c3.997-.402 8.16-.235 12.185-.288.705 1.153 1.02 2.105 1.205 3.431.473 3.338.844 8.006-1.252 10.822-3.848 1.191-9.069.54-13.121.516 2.365-4.035 1.725-10.029.983-14.481"/></svg>
